X: 1
T: Schottische militaire
C: Trad
F: http://mustrad.udenap.org/tounes/TQ374_schottische_militaire.html
Z: 2010 John Chambers <jc:trillian.mit.edu>
M: 2/4
L: 1/16
K: A
[| c4 A3B | c4 A3E | (3FGF EC A,2F2 | E6 E2 \
| E2 (3FGF B,2C2 | D6 BB | B2c2 E2B2 | A2EE FEAB |
| c4 A3B | c4 A3E | (3FGF EC A,2F2 | E6 E2 \
| E2 (3FGF B,2C2 | D2E2 F2G2 | A2 (3EAc e2c2 | A8 |
| C3C CECE | D3D DEDE | C2E2 A2B2 | c8 \
| c3c cece | c4 B4 | B3B Bcec | B4 A4 |
| C3C CECE | D3D DEDE | C2E2 A2B2 | c8 \
| c3c c2f2 | e3c A2F2 | E2d2 F2G2 | A8 |]
